X:0794
T:Miss. L. Montgomery of Skermorlie's Strathsy.
M:C
L:1/8
Q:1/4=120
I: :| ||
Z:Jack Campin * www.campin.me.uk * 2009
K:D
F   |D2  D>d dc`BA |TBABd      eEEF   |D2 D>d dc`BA |B/c/d  e/f/g    fdd   :|
f/g/|a>d`a>f ad`b>a| ada>f     feef/g/|a<da>f a<db>d|A>d {f}ed/e/ {e}fddf/g/|
     a>dTa>f adTb>a| ada>f {de}feef/g/|D2 Dd  dc`BA |B/c/d  e/f/g    fdd   |]
<end>
<start>
